src/actions/24/mail-invitation.svg

<svg viewBox="0 0 24 24" xmlns="http://www.w3.org/2000/svg">
 <defs>
  <style type="text/css">.ColorScheme-Text {
        color:#2e3440;
      }</style>
 </defs>
 <path class="ColorScheme-Text" d="m4 4v1 1 1l-2 3v1 1.4004 0.59961 6 0.41406 0.58594h1 6 6v-1h-12v-0.58594-1.4141-4-1-0.59961-0.40039h0.40039 0.59961 1.0781l6.9219 3.9961 6.9219-3.9961h0.078125 1 1v0.40039 0.59961 1h1v-0.59961-1.4141-0.98633l-2-3v-3h-15-1zm1 1h14v1 3.7988l-7 4.041-7-4.041v-3.7988-1zm1 1v0.98633l-0.013672 0.013672h0.013672 12 0.013672l-0.013672-0.013672v-0.98633h-12zm0 2v1h7v-1h-7zm13.5 5c-0.831 0-1.5 0.669-1.5 1.5s0.669 1.5 1.5 1.5 1.5-0.669 1.5-1.5-0.669-1.5-1.5-1.5zm-0.5 4c-1.108 0-2 0.892-2 2v1h5v-1c0-1.108-0.892-2-2-2h-1z" fill="currentColor"/>
</svg>

<svg xmlns="http://www.w3.org/2000/svg" viewBox="0 0 24 24">
  <defs id="defs3051">
    <style type="text/css" id="current-color-scheme">
      .ColorScheme-Text {
        color:#2e3440;
      }
      </style>
  </defs>
 <path style="fill:currentColor;fill-opacity:1;stroke:none" 
     d="M 4 4 L 4 5 L 4 6 L 4 7 L 2 10 L 2 11 L 2 12.400391 L 2 13 L 2 19 L 2 19.414062 L 2 20 L 3 20 L 9 20 L 15 20 L 15 19 L 3 19 L 3 18.414062 L 3 17 L 3 13 L 3 12 L 3 11.400391 L 3 11 L 3.4003906 11 L 4 11 L 5.078125 11 L 12 14.996094 L 18.921875 11 L 19 11 L 20 11 L 21 11 L 21 11.400391 L 21 12 L 21 13 L 22 13 L 22 12.400391 L 22 10.986328 L 22 10 L 20 7 L 20 4 L 5 4 L 4 4 z M 5 5 L 19 5 L 19 6 L 19 9.7988281 L 12 13.839844 L 5 9.7988281 L 5 6 L 5 5 z M 6 6 L 6 6.9863281 L 5.9863281 7 L 6 7 L 18 7 L 18.013672 7 L 18 6.9863281 L 18 6 L 6 6 z M 6 8 L 6 9 L 13 9 L 13 8 L 6 8 z M 19.5 13 C 18.669 13 18 13.669 18 14.5 C 18 15.331 18.669 16 19.5 16 C 20.331 16 21 15.331 21 14.5 C 21 13.669 20.331 13 19.5 13 z M 19 17 C 17.892 17 17 17.892 17 19 L 17 20 L 22 20 L 22 19 C 22 17.892 21.108 17 20 17 L 19 17 z "
     class="ColorScheme-Text"
     />
</svg>
